modules/framework7-icons/icons/at_fill.svg

<?xml version="1.0" encoding="UTF-8"?>
<svg width="50px" height="50px" viewBox="0 0 50 50" version="1.1" xmlns="http://www.w3.org/2000/svg" xmlns:xlink="http://www.w3.org/1999/xlink">
    <!-- Generator: Sketch 40.1 (33804) - http://www.bohemiancoding.com/sketch -->
    <title>at_fill</title>
    <desc>Created with Sketch.</desc>
    <defs></defs>
    <g id="Page-1" stroke="none" stroke-width="1" fill="none" fill-rule="evenodd">
        <g id="at_fill" fill="#000000">
            <path d="M25,50 C38.8071187,50 50,38.8071187 50,25 C50,11.1928813 38.8071187,0 25,0 C11.1928813,0 0,11.1928813 0,25 C0,38.8071187 11.1928813,50 25,50 Z M23.9042969,19.28125 C26.5234375,19.28125 28.1582031,21.3730469 28.1582031,24.6777344 C28.1582031,28.0351562 26.4882812,30.2148438 23.8867188,30.2148438 C21.3378906,30.2148438 19.703125,28.0703125 19.703125,24.765625 C19.703125,21.4433594 21.3554688,19.28125 23.9042969,19.28125 Z M24.4667969,10 C15.9941406,10 10,15.9589844 10,24.5898438 C10,33.8007812 16.1171875,39.2851562 24.6425781,39.2851562 C26.9980469,39.2851562 29.0722656,39.0039062 30.4960938,38.5117188 L30.4960938,36.7714844 C29.3007812,37.2460938 27.0332031,37.5449219 24.6601562,37.5449219 C17.3125,37.5449219 11.9335938,32.7285156 11.9335938,24.6601562 C11.9335938,17.1367188 17.1542969,11.7402344 24.3085938,11.7402344 C31.5683594,11.7402344 36.6132812,16.328125 36.6132812,23.0429688 C36.6132812,27.7714844 35.0136719,30.4609375 32.6757812,30.4609375 C31.0761719,30.4609375 30.2324219,29.40625 30.2324219,27.8066406 L30.2324219,17.7519531 L28.1933594,17.7519531 L28.1933594,20.2304688 L28.0703125,20.2304688 C27.4199219,18.5078125 25.6445312,17.4003906 23.6054688,17.4003906 C20.0195312,17.4003906 17.5234375,20.3886719 17.5234375,24.7128906 C17.5234375,29.1425781 19.984375,32.1308594 23.6054688,32.1308594 C25.7851562,32.1308594 27.4199219,31.0234375 28.2109375,29.0195312 L28.3339844,29.0195312 C28.5976562,30.9882812 30.25,32.2539062 32.3417969,32.2539062 C36.2089844,32.2539062 38.5292969,28.6679688 38.5292969,23.078125 C38.5292969,15.2910156 32.6757812,10 24.4667969,10 Z" id="Combined-Shape"></path>
        </g>
    </g>
</svg>

<svg width="50" height="50" xmlns="http://www.w3.org/2000/svg"><path d="M25 50c13.807 0 25-11.193 25-25S38.807 0 25 0 0 11.193 0 25s11.193 25 25 25zm-1.096-30.719c2.62 0 4.254 2.092 4.254 5.397 0 3.357-1.67 5.537-4.271 5.537-2.55 0-4.184-2.145-4.184-5.45 0-3.322 1.652-5.484 4.201-5.484zM24.467 10C15.994 10 10 15.959 10 24.59c0 9.21 6.117 14.695 14.643 14.695 2.355 0 4.43-.281 5.853-.773v-1.74c-1.195.474-3.463.773-5.836.773-7.348 0-12.726-4.816-12.726-12.885 0-7.523 5.22-12.92 12.375-12.92 7.26 0 12.304 4.588 12.304 11.303 0 4.728-1.6 7.418-3.937 7.418-1.6 0-2.444-1.055-2.444-2.654V17.752h-2.039v2.478h-.123c-.65-1.722-2.425-2.83-4.465-2.83-3.585 0-6.082 2.989-6.082 7.313 0 4.43 2.461 7.418 6.082 7.418 2.18 0 3.815-1.108 4.606-3.111h.123c.264 1.968 1.916 3.234 4.008 3.234 3.867 0 6.187-3.586 6.187-9.176C38.53 15.291 32.676 10 24.467 10z" fill-rule="evenodd"/></svg>
